app/images/icons/Twitter.svg

<svg xmlns="http://www.w3.org/2000/svg" preserveAspectRatio="xMidYMid" width="14.31" height="11.62"><path d="M14.31 1.397c-.105.159-.21.307-.332.45-.311.384-.67.724-1.072 1.015l-.05.093c.013.433-.007.867-.065 1.3a8.702 8.702 0 01-2.374 4.92 7.904 7.904 0 01-4.049 2.249 9.057 9.057 0 01-1.636.192c-.089.002-.177.004-.265.004a8.219 8.219 0 01-4.416-1.266l-.07-.043c.232.024.461.037.689.037a5.95 5.95 0 002.248-.438 5.825 5.825 0 001.4-.817c-1.519-.049-2.465-1.147-2.711-2.035.182.035.364.052.545.052a3.1 3.1 0 00.712-.085l.044-.022c-.827-.192-1.46-.631-1.894-1.344a2.859 2.859 0 01-.421-1.558c.415.22.842.34 1.303.351C1.279 4.008.867 3.421.703 2.675A2.881 2.881 0 011.037.552c1.571 1.871 3.571 2.897 6.021 3.066-.015-.12-.031-.219-.047-.323a2.845 2.845 0 01.448-1.914C7.931.646 8.598.19 9.455.053c.182-.03.36-.045.533-.045.768 0 1.446.294 2.028.863.036.032.067.05.108.05A5.795 5.795 0 0013.88.262l.038-.022c-.213.68-.64 1.206-1.246 1.596a5.654 5.654 0 001.638-.439z" fill="#a1a1a1" fill-rule="evenodd"/></svg>

<svg xmlns="http://www.w3.org/2000/svg" xmlns:xlink="http://www.w3.org/1999/xlink" preserveAspectRatio="xMidYMid" width="14.31" height="11.62" viewBox="0 0 14.31 11.62">
  <defs>
    <style>
      .cls-1 {
        fill: #a1a1a1;
        fill-rule: evenodd;
      }
    </style>
  </defs>
  <path d="M14.310,1.397 C14.205,1.556 14.100,1.704 13.978,1.847 C13.667,2.231 13.308,2.571 12.906,2.862 L12.856,2.955 C12.869,3.388 12.849,3.822 12.791,4.255 C12.674,5.165 12.410,6.037 12.019,6.866 C11.607,7.721 11.080,8.495 10.417,9.175 C9.289,10.332 7.939,11.079 6.368,11.424 C5.829,11.539 5.286,11.600 4.732,11.616 C4.643,11.618 4.555,11.620 4.467,11.620 C2.879,11.620 1.407,11.196 0.051,10.354 L-0.019,10.311 C0.213,10.335 0.442,10.348 0.670,10.348 C1.445,10.348 2.190,10.203 2.918,9.910 C3.419,9.702 3.882,9.438 4.318,9.093 C2.799,9.044 1.853,7.946 1.607,7.058 C1.789,7.093 1.971,7.110 2.152,7.110 C2.389,7.110 2.626,7.081 2.864,7.025 L2.908,7.003 C2.081,6.811 1.448,6.372 1.014,5.659 C0.722,5.187 0.589,4.666 0.593,4.101 C1.008,4.321 1.435,4.441 1.896,4.452 C1.279,4.008 0.867,3.421 0.703,2.675 C0.538,1.929 0.653,1.221 1.037,0.552 C2.608,2.423 4.608,3.449 7.058,3.618 C7.043,3.498 7.027,3.399 7.011,3.295 C6.934,2.604 7.082,1.962 7.459,1.381 C7.931,0.646 8.598,0.190 9.455,0.053 C9.637,0.023 9.815,0.008 9.988,0.008 C10.756,0.008 11.434,0.302 12.016,0.871 C12.052,0.903 12.083,0.921 12.124,0.921 C12.137,0.921 12.152,0.919 12.169,0.914 C12.773,0.788 13.346,0.569 13.880,0.262 L13.918,0.240 C13.705,0.920 13.278,1.446 12.672,1.836 C13.243,1.776 13.782,1.622 14.310,1.397 Z" class="cls-1"/>
</svg>
